X: 7880
T: Con Cassidy's
R: reel
M: 4/4
K: Gmixolydian
BGdG B/c/d GB|AD D/D/D E/^F/G Ac|BGdG B/c/d Gf|ec e/f/g fedc:|
B/c/d- de fefc|AFAB cedc|B/c/d- de fefd|e/f/g ec fedc|
B/c/d- de fefd|cAFA cfef|gfeg fed^c|dafe fedc|

